assets/images/sprite.svg

<svg version="1.1" xmlns="http://www.w3.org/2000/svg">
	<symbol viewBox="0 0 37 37" fill="none" id="icon-phone">
		<path d="M12.8873 28.8093L13.3683 27.9326L12.8873 28.8093ZM12.1771 28.0445L13.081 27.6168L12.1771 28.0445ZM24.8229 28.0445L23.919 27.6168L24.8229 28.0445ZM24.1127 28.8093L23.6317 27.9326L24.1127 28.8093ZM24.1127 8.19074L23.6317 9.06743L24.1127 8.19074ZM24.8229 8.95552L23.919 9.38319L24.8229 8.95552ZM12.8873 8.19074L13.3683 9.06743L12.8873 8.19074ZM12.1771 8.95552L13.081 9.38319L12.1771 8.95552ZM18.3223 25.019C17.77 25.019 17.3223 25.4667 17.3223 26.019C17.3223 26.5713 17.77 27.019 18.3223 27.019V25.019ZM18.3304 27.019C18.8827 27.019 19.3304 26.5713 19.3304 26.019C19.3304 25.4667 18.8827 25.019 18.3304 25.019V27.019ZM15.8848 10.7053L14.9016 10.8879L15.0534 11.7053H15.8848V10.7053ZM21.5723 10.7053V11.7053H22.4037L22.5555 10.8879L21.5723 10.7053ZM14.6 9H22.4V7H14.6V9ZM24 10.8V26.2H26V10.8H24ZM22.4 28H14.6V30H22.4V28ZM13 26.2V10.8H11V26.2H13ZM14.6 28C14.1272 28 13.8373 27.9991 13.6204 27.98C13.4174 27.9621 13.3714 27.9342 13.3683 27.9326L12.4062 29.686C12.7508 29.875 13.1061 29.9425 13.4451 29.9723C13.77 30.0009 14.1627 30 14.6 30V28ZM11 26.2C11 26.6747 10.9993 27.0866 11.025 27.425C11.0514 27.7732 11.11 28.1273 11.2732 28.4722L13.081 27.6168C13.0671 27.5874 13.0371 27.5093 13.0193 27.2737C13.0007 27.0285 13 26.7054 13 26.2H11ZM13.3683 27.9326C13.2559 27.8709 13.151 27.7646 13.081 27.6168L11.2732 28.4722C11.5148 28.9829 11.9071 29.4121 12.4062 29.686L13.3683 27.9326ZM24 26.2C24 26.7054 23.9993 27.0285 23.9807 27.2737C23.9629 27.5093 23.9329 27.5874 23.919 27.6168L25.7268 28.4722C25.89 28.1273 25.9486 27.7732 25.975 27.425C26.0007 27.0866 26 26.6747 26 26.2H24ZM22.4 30C22.8373 30 23.23 30.0009 23.5549 29.9723C23.8939 29.9425 24.2492 29.875 24.5938 29.686L23.6317 27.9326C23.6286 27.9342 23.5826 27.9621 23.3796 27.98C23.1627 27.9991 22.8728 28 22.4 28V30ZM23.919 27.6168C23.849 27.7646 23.7441 27.8709 23.6317 27.9326L24.5938 29.686C25.0929 29.4121 25.4852 28.9829 25.7268 28.4722L23.919 27.6168ZM22.4 9C22.8728 9 23.1627 9.0009 23.3796 9.01999C23.5826 9.03785 23.6286 9.06576 23.6317 9.06743L24.5938 7.31405C24.2492 7.12498 23.8939 7.05752 23.5549 7.02769C23.23 6.9991 22.8373 7 22.4 7V9ZM26 10.8C26 10.3253 26.0007 9.91339 25.975 9.57495C25.9486 9.22684 25.89 8.87273 25.7268 8.52784L23.919 9.38319C23.9329 9.41264 23.9629 9.49073 23.9807 9.72625C23.9993 9.97145 24 10.2946 24 10.8H26ZM23.6317 9.06743C23.7441 9.12913 23.849 9.23537 23.919 9.38319L25.7268 8.52784C25.4852 8.0171 25.0929 7.58791 24.5938 7.31405L23.6317 9.06743ZM14.6 7C14.1627 7 13.77 6.9991 13.4451 7.02769C13.1061 7.05752 12.7508 7.12498 12.4062 7.31405L13.3683 9.06743C13.3714 9.06576 13.4174 9.03785 13.6204 9.01999C13.8373 9.0009 14.1272 9 14.6 9V7ZM13 10.8C13 10.2946 13.0007 9.97145 13.0193 9.72625C13.0371 9.49073 13.0671 9.41264 13.081 9.38319L11.2732 8.52784C11.11 8.87273 11.0514 9.22684 11.025 9.57495C10.9993 9.91339 11 10.3253 11 10.8H13ZM12.4062 7.31405C11.9071 7.58791 11.5148 8.0171 11.2732 8.52784L13.081 9.38319C13.151 9.23537 13.2559 9.12913 13.3683 9.06743L12.4062 7.31405ZM18.3223 27.019H18.3304V25.019H18.3223V27.019ZM17.7285 26.019C17.7285 25.7794 17.9258 25.4565 18.3223 25.4565V27.4565C19.1674 27.4565 19.7285 26.7418 19.7285 26.019H17.7285ZM18.3223 25.4565C18.7187 25.4565 18.916 25.7794 18.916 26.019H16.916C16.916 26.7418 17.4771 27.4565 18.3223 27.4565V25.4565ZM18.916 26.019C18.916 26.2586 18.7187 26.5815 18.3223 26.5815V24.5815C17.4771 24.5815 16.916 25.2961 16.916 26.019H18.916ZM18.3223 26.5815C17.9258 26.5815 17.7285 26.2586 17.7285 26.019H19.7285C19.7285 25.2961 19.1674 24.5815 18.3223 24.5815V26.5815ZM14.4953 8.70041L14.9016 10.8879L16.868 10.5227L16.4617 8.33523L14.4953 8.70041ZM15.8848 11.7053H21.5723V9.70532H15.8848V11.7053ZM22.5555 10.8879L22.9617 8.70041L20.9953 8.33523L20.5891 10.5227L22.5555 10.8879Z" fill="currentColor"/>
		<path d="M37 18.5C37 28.7173 28.7173 37 18.5 37C8.28273 37 0 28.7173 0 18.5C0 8.28273 8.28273 0 18.5 0C28.7173 0 37 8.28273 37 18.5ZM1.84748 18.5C1.84748 27.6969 9.30307 35.1525 18.5 35.1525C27.6969 35.1525 35.1525 27.6969 35.1525 18.5C35.1525 9.30307 27.6969 1.84748 18.5 1.84748C9.30307 1.84748 1.84748 9.30307 1.84748 18.5Z" fill="currentColor"/>
	</symbol>
	<symbol viewBox="0 0 37 37" fill="none" id="icon-telegram">
		<path d="M37 18.5C37 28.7173 28.7173 37 18.5 37C8.28273 37 0 28.7173 0 18.5C0 8.28273 8.28273 0 18.5 0C28.7173 0 37 8.28273 37 18.5ZM1.84748 18.5C1.84748 27.6969 9.30307 35.1525 18.5 35.1525C27.6969 35.1525 35.1525 27.6969 35.1525 18.5C35.1525 9.30307 27.6969 1.84748 18.5 1.84748C9.30307 1.84748 1.84748 9.30307 1.84748 18.5Z" fill="currentColor"/>
		<path d="M25.47 11.6682C26.3535 11.6682 26.5861 12.3777 26.3247 14.0437C26.0257 15.9488 25.1641 22.2562 24.477 26.1826C24.214 27.6851 23.7401 28.3329 23.0503 28.3329C22.6711 28.3329 22.227 28.1372 21.7168 27.7796C21.0255 27.2947 17.5353 24.8442 16.7774 24.2686C16.0861 23.7443 15.1323 23.1131 16.3286 21.8709C16.7544 21.4283 19.5443 18.5995 21.7179 16.3981C21.9499 16.1629 21.7556 15.8042 21.4979 15.8042C21.4392 15.8042 21.3769 15.8231 21.3162 15.8659C18.3863 17.9289 14.3237 20.7921 13.8067 21.1652C13.2898 21.5378 12.7859 21.7769 12.1145 21.7769C11.7715 21.7769 11.3844 21.7146 10.9293 21.5756C9.91164 21.2653 8.91809 20.8955 8.53105 20.7543C7.041 20.2116 7.39452 19.5082 8.84163 18.832C14.6437 16.1223 22.1515 12.8181 23.188 12.3611C24.1978 11.9156 24.9478 11.6682 25.47 11.6682ZM25.47 10C24.7535 10 23.8909 10.2452 22.5862 10.8196L22.4296 10.8886C16.8596 13.3442 11.8092 15.6229 8.20894 17.3045C7.64644 17.5675 5.93537 18.3666 6.00189 20.0381C6.03017 20.7593 6.40412 21.7424 8.02144 22.3313L8.14086 22.3747C8.59233 22.5398 9.53245 22.884 10.4961 23.1782C11.0827 23.3572 11.6128 23.444 12.115 23.444C12.9865 23.444 13.6616 23.1799 14.1896 22.8724C14.187 22.9658 14.1891 23.0597 14.1959 23.1543C14.2912 24.4399 15.2276 25.145 15.787 25.5665L15.865 25.6254C16.691 26.2527 20.4289 28.8745 20.8521 29.1709C21.6487 29.7292 22.3678 30 23.0513 30C24.1261 30 25.5145 29.3906 26.0225 26.4868C26.5049 23.7326 27.0622 19.8852 27.4691 17.0759C27.6425 15.8771 27.7849 14.8939 27.8755 14.3173C28.0583 13.1529 28.1421 11.8339 27.379 10.878C27.0585 10.4777 26.4677 10 25.47 10Z" fill="currentColor"/>
	</symbol>
	<svg viewBox="0 0 50 50" id="icon-whatsapp">
		<path d="M 25 2 C 12.309534 2 2 12.309534 2 25 C 2 29.079097 3.1186875 32.88588 4.984375 36.208984 L 2.0371094 46.730469 A 1.0001 1.0001 0 0 0 3.2402344 47.970703 L 14.210938 45.251953 C 17.434629 46.972929 21.092591 48 25 48 C 37.690466 48 48 37.690466 48 25 C 48 12.309534 37.690466 2 25 2 z M 25 4 C 36.609534 4 46 13.390466 46 25 C 46 36.609534 36.609534 46 25 46 C 21.278025 46 17.792121 45.029635 14.761719 43.333984 A 1.0001 1.0001 0 0 0 14.033203 43.236328 L 4.4257812 45.617188 L 7.0019531 36.425781 A 1.0001 1.0001 0 0 0 6.9023438 35.646484 C 5.0606869 32.523592 4 28.890107 4 25 C 4 13.390466 13.390466 4 25 4 z M 16.642578 13 C 16.001539 13 15.086045 13.23849 14.333984 14.048828 C 13.882268 14.535548 12 16.369511 12 19.59375 C 12 22.955271 14.331391 25.855848 14.613281 26.228516 L 14.615234 26.228516 L 14.615234 26.230469 C 14.588494 26.195329 14.973031 26.752191 15.486328 27.419922 C 15.999626 28.087653 16.717405 28.96464 17.619141 29.914062 C 19.422612 31.812909 21.958282 34.007419 25.105469 35.349609 C 26.554789 35.966779 27.698179 36.339417 28.564453 36.611328 C 30.169845 37.115426 31.632073 37.038799 32.730469 36.876953 C 33.55263 36.755876 34.456878 36.361114 35.351562 35.794922 C 36.246248 35.22873 37.12309 34.524722 37.509766 33.455078 C 37.786772 32.688244 37.927591 31.979598 37.978516 31.396484 C 38.003976 31.104927 38.007211 30.847602 37.988281 30.609375 C 37.969311 30.371148 37.989581 30.188664 37.767578 29.824219 C 37.302009 29.059804 36.774753 29.039853 36.224609 28.767578 C 35.918939 28.616297 35.048661 28.191329 34.175781 27.775391 C 33.303883 27.35992 32.54892 26.991953 32.083984 26.826172 C 31.790239 26.720488 31.431556 26.568352 30.914062 26.626953 C 30.396569 26.685553 29.88546 27.058933 29.587891 27.5 C 29.305837 27.918069 28.170387 29.258349 27.824219 29.652344 C 27.819619 29.649544 27.849659 29.663383 27.712891 29.595703 C 27.284761 29.383815 26.761157 29.203652 25.986328 28.794922 C 25.2115 28.386192 24.242255 27.782635 23.181641 26.847656 L 23.181641 26.845703 C 21.603029 25.455949 20.497272 23.711106 20.148438 23.125 C 20.171937 23.09704 20.145643 23.130901 20.195312 23.082031 L 20.197266 23.080078 C 20.553781 22.728924 20.869739 22.309521 21.136719 22.001953 C 21.515257 21.565866 21.68231 21.181437 21.863281 20.822266 C 22.223954 20.10644 22.02313 19.318742 21.814453 18.904297 L 21.814453 18.902344 C 21.828863 18.931014 21.701572 18.650157 21.564453 18.326172 C 21.426943 18.001263 21.251663 17.580039 21.064453 17.130859 C 20.690033 16.232501 20.272027 15.224912 20.023438 14.634766 L 20.023438 14.632812 C 19.730591 13.937684 19.334395 13.436908 18.816406 13.195312 C 18.298417 12.953717 17.840778 13.022402 17.822266 13.021484 L 17.820312 13.021484 C 17.450668 13.004432 17.045038 13 16.642578 13 z M 16.642578 15 C 17.028118 15 17.408214 15.004701 17.726562 15.019531 C 18.054056 15.035851 18.033687 15.037192 17.970703 15.007812 C 17.906713 14.977972 17.993533 14.968282 18.179688 15.410156 C 18.423098 15.98801 18.84317 16.999249 19.21875 17.900391 C 19.40654 18.350961 19.582292 18.773816 19.722656 19.105469 C 19.863021 19.437122 19.939077 19.622295 20.027344 19.798828 L 20.027344 19.800781 L 20.029297 19.802734 C 20.115837 19.973483 20.108185 19.864164 20.078125 19.923828 C 19.867096 20.342656 19.838461 20.445493 19.625 20.691406 C 19.29998 21.065838 18.968453 21.483404 18.792969 21.65625 C 18.639439 21.80707 18.36242 22.042032 18.189453 22.501953 C 18.016221 22.962578 18.097073 23.59457 18.375 24.066406 C 18.745032 24.6946 19.964406 26.679307 21.859375 28.347656 C 23.05276 29.399678 24.164563 30.095933 25.052734 30.564453 C 25.940906 31.032973 26.664301 31.306607 26.826172 31.386719 C 27.210549 31.576953 27.630655 31.72467 28.119141 31.666016 C 28.607627 31.607366 29.02878 31.310979 29.296875 31.007812 L 29.298828 31.005859 C 29.655629 30.601347 30.715848 29.390728 31.224609 28.644531 C 31.246169 28.652131 31.239109 28.646231 31.408203 28.707031 L 31.408203 28.708984 L 31.410156 28.708984 C 31.487356 28.736474 32.454286 29.169267 33.316406 29.580078 C 34.178526 29.990889 35.053561 30.417875 35.337891 30.558594 C 35.748225 30.761674 35.942113 30.893881 35.992188 30.894531 C 35.995572 30.982516 35.998992 31.07786 35.986328 31.222656 C 35.951258 31.624292 35.8439 32.180225 35.628906 32.775391 C 35.523582 33.066746 34.975018 33.667661 34.283203 34.105469 C 33.591388 34.543277 32.749338 34.852514 32.4375 34.898438 C 31.499896 35.036591 30.386672 35.087027 29.164062 34.703125 C 28.316336 34.437036 27.259305 34.092596 25.890625 33.509766 C 23.114812 32.325956 20.755591 30.311513 19.070312 28.537109 C 18.227674 27.649908 17.552562 26.824019 17.072266 26.199219 C 16.592866 25.575584 16.383528 25.251054 16.208984 25.021484 L 16.207031 25.019531 C 15.897202 24.609805 14 21.970851 14 19.59375 C 14 17.077989 15.168497 16.091436 15.800781 15.410156 C 16.132721 15.052495 16.495617 15 16.642578 15 z" fill="currentColor"/>
	</svg>
</svg>

<svg version="1.1" xmlns="http://www.w3.org/2000/svg">
	<symbol fill="none" viewBox="0 0 37 37" id="icon-phone">
		<path fill="#fff" d="m12.887 28.81.481-.877-.48.876Zm-.71-.765.904-.428-.904.427Zm12.646 0-.904-.428.904.427Zm-.71.764-.481-.876.48.876Zm0-20.618-.481.876.48-.876Zm.71.765-.904.427.904-.427ZM12.887 8.19l.481.876-.48-.876Zm-.71.765.904.427-.904-.427Zm6.145 16.063a1 1 0 1 0 0 2v-2Zm.008 2a1 1 0 1 0 0-2v2Zm-2.445-16.314-.983.183.151.817h.832v-1Zm5.687 0v1h.832l.151-.817-.983-.183ZM14.6 9h7.8V7h-7.8v2Zm9.4 1.8v15.4h2V10.8h-2ZM22.4 28h-7.8v2h7.8v-2ZM13 26.2V10.8h-2v15.4h2Zm1.6 1.8c-.473 0-.763 0-.98-.02-.203-.018-.249-.046-.252-.047l-.962 1.753c.345.189.7.256 1.04.286.324.029.717.028 1.154.028v-2ZM11 26.2c0 .475 0 .887.025 1.225.026.348.085.702.248 1.047l1.808-.855c-.014-.03-.044-.108-.062-.343-.018-.245-.019-.569-.019-1.074h-2Zm2.368 1.733a.695.695 0 0 1-.287-.316l-1.808.855c.242.51.634.94 1.133 1.214l.962-1.753ZM24 26.2c0 .505 0 .829-.02 1.074-.017.235-.047.313-.061.343l1.808.855c.163-.345.222-.699.248-1.047.026-.338.025-.75.025-1.225h-2ZM22.4 30c.437 0 .83 0 1.155-.028.339-.03.694-.097 1.039-.286l-.962-1.753c-.003.001-.05.03-.252.047-.217.02-.507.02-.98.02v2Zm1.519-2.383a.695.695 0 0 1-.287.316l.962 1.753c.499-.274.891-.703 1.133-1.214l-1.808-.855ZM22.4 9c.473 0 .763 0 .98.02.203.018.249.046.252.047l.962-1.753c-.345-.189-.7-.256-1.04-.286C23.23 6.999 22.838 7 22.4 7v2Zm3.6 1.8c0-.475 0-.887-.025-1.225-.026-.348-.085-.702-.248-1.047l-1.808.855c.014.03.044.108.062.343.018.245.019.569.019 1.074h2Zm-2.368-1.733a.694.694 0 0 1 .287.316l1.808-.855a2.692 2.692 0 0 0-1.133-1.214l-.962 1.753ZM14.6 7c-.437 0-.83 0-1.155.028-.339.03-.694.097-1.039.286l.962 1.753c.003-.001.05-.03.252-.047.217-.02.507-.02.98-.02V7ZM13 10.8c0-.505 0-.829.02-1.074.017-.235.047-.313.061-.343l-1.808-.855c-.163.345-.222.699-.248 1.047-.026.338-.025.75-.025 1.225h2Zm-.594-3.486c-.499.274-.891.703-1.133 1.214l1.808.855a.694.694 0 0 1 .287-.316l-.962-1.753Zm5.916 19.705h.008v-2h-.008v2Zm-.593-1c0-.24.197-.563.593-.563v2c.845 0 1.407-.714 1.407-1.437h-2Zm.593-.563c.397 0 .594.323.594.563h-2c0 .723.561 1.438 1.406 1.438v-2Zm.594.563c0 .24-.197.563-.594.563v-2c-.845 0-1.406.714-1.406 1.437h2Zm-.594.563a.579.579 0 0 1-.593-.563h2c0-.723-.562-1.438-1.407-1.438v2ZM14.495 8.7l.407 2.188 1.966-.365-.406-2.188-1.967.365Zm1.39 3.005h5.687v-2h-5.687v2Zm6.67-.817.407-2.188-1.967-.365-.406 2.188 1.966.365Z"/>
		<circle cx="18.5" cy="18.5" r="17.5" stroke="#fff" stroke-width="2"/>
	</symbol>
	<symbol fill="none" viewBox="0 0 37 37" id="icon-telegram">
		<path stroke="#fff" stroke-linecap="round" stroke-linejoin="round" stroke-width="2" d="M9.053 18.341c-.609-.236-.914-.355-.999-.522a.494.494 0 0 1 .006-.46c.09-.166.397-.276 1.012-.497l15.687-5.631c.503-.18.755-.271.92-.214.142.05.255.162.304.305.057.164-.033.416-.214.92l-5.631 15.686c-.22.615-.331.922-.496 1.012a.493.493 0 0 1-.46.006c-.168-.086-.287-.39-.523-.999l-2.564-6.592a1.065 1.065 0 0 0-.105-.23.496.496 0 0 0-.116-.115c-.05-.035-.11-.059-.229-.105l-6.592-2.564Z"/>
		<circle cx="18.5" cy="18.5" r="17.5" stroke="#fff" stroke-width="2"/>
	</symbol>
	<symbol fill="none" viewBox="0 0 39 39" id="icon-whatsapp">
		<path stroke="#fff" stroke-linejoin="round" stroke-width="2" d="M32.585 6.396C29.105 2.927 24.463 1 19.565 1 9.38 1 1.128 9.222 1.128 19.372c0 3.211.902 6.423 2.45 9.121L1 38l9.798-2.57c2.707 1.414 5.672 2.185 8.766 2.185C29.75 37.615 38 29.392 38 19.243c-.129-4.753-1.934-9.378-5.415-12.847ZM28.46 25.924c-.387 1.027-2.192 2.055-3.094 2.184a7.23 7.23 0 0 1-2.836-.129c-.645-.257-1.547-.514-2.579-1.028-4.64-1.927-7.606-6.552-7.864-6.937-.258-.257-1.934-2.441-1.934-4.754 0-2.312 1.16-3.34 1.547-3.854.387-.514.903-.514 1.29-.514h.902c.258 0 .645-.128 1.031.771.387.9 1.29 3.212 1.418 3.34a.817.817 0 0 1 0 .771c-.129.257-.257.514-.515.771s-.516.642-.645.771c-.258.257-.515.514-.258.9.258.513 1.16 1.926 2.579 3.211 1.805 1.542 3.223 2.056 3.738 2.313.516.257.774.128 1.032-.129s1.16-1.285 1.418-1.799c.258-.513.644-.385 1.031-.256.387.128 2.708 1.284 3.094 1.541.516.257.774.386.903.514.129.386.129 1.285-.258 2.313Z"/>
	</symbol>
</svg>
